assets/sonr-icons/file-chart.svg

<svg xmlns="http://www.w3.org/2000/svg" width="24" height="24" fill="none" viewBox="0 0 24 24"><path fill="#000" d="M14.6909 2.111C15.0989 2.209 15.4899 2.371 15.8479 2.59C16.2539 2.839 16.5929 3.178 17.0409 3.627L18.3729 4.959C18.8219 5.408 19.1609 5.747 19.4099 6.152C19.6289 6.51 19.7909 6.9 19.8889 7.309C19.9999 7.772 19.9999 8.252 19.9989 8.886V16.241C19.9989 17.046 19.9989 17.71 19.9549 18.252C19.9089 18.814 19.8099 19.33 19.5629 19.816C19.1799 20.569 18.5679 21.18 17.8149 21.564C17.3299 21.812 16.8129 21.91 16.2509 21.956C15.7089 22 15.0459 22 14.2399 22H9.75695C8.95195 22 8.28795 22 7.74595 21.956C7.18395 21.91 6.66695 21.811 6.18095 21.564C5.42795 21.181 4.81695 20.569 4.43295 19.816C4.18495 19.331 4.08695 18.814 4.04095 18.252C3.99695 17.71 3.99695 17.047 3.99695 16.241V7.759C3.99695 6.954 3.99695 6.29 4.04095 5.748C4.08695 5.186 4.18595 4.669 4.43295 4.183C4.81595 3.43 5.42795 2.819 6.18095 2.435C6.66595 2.187 7.18295 2.089 7.74595 2.044C8.28695 2 8.95095 2 9.75695 2H13.1119C13.7469 2 14.2259 1.999 14.6889 2.11L14.6909 2.111ZM12.9999 4H9.79995C8.94395 4 8.36195 4.001 7.91095 4.037C7.47195 4.073 7.24895 4.138 7.09195 4.218C6.71495 4.41 6.40895 4.716 6.21795 5.092C6.13795 5.249 6.07295 5.472 6.03695 5.911C5.99995 6.361 5.99995 6.943 5.99995 7.8V16.2C5.99995 17.057 6.00095 17.638 6.03695 18.089C6.07295 18.528 6.13795 18.751 6.21795 18.908C6.40995 19.285 6.71595 19.591 7.09195 19.782C7.24895 19.862 7.47195 19.927 7.91095 19.963C8.36095 20 8.94395 20 9.79995 20H14.1999C15.0559 20 15.6389 19.999 16.0889 19.963C16.5279 19.927 16.7509 19.862 16.9079 19.782C17.2849 19.59 17.5909 19.284 17.7819 18.908C17.8609 18.751 17.9269 18.528 17.9629 18.089C17.9999 17.639 18.0009 17.056 18.0009 16.2V9H16.0009C14.3439 9 13.0009 7.657 13.0009 6V4H12.9999ZM17.5599 7C17.4399 6.858 17.2479 6.662 16.8869 6.301L15.6989 5.113C15.3379 4.752 15.1429 4.56 14.9999 4.44V6C14.9999 6.552 15.4479 7 15.9999 7H17.5599Z"/><path fill="#000" d="M15 12C15 11.448 14.552 11 14 11C13.448 11 13 11.448 13 12V17C13 17.552 13.448 18 14 18C14.552 18 15 17.552 15 17V12ZM11 15C11 14.448 10.552 14 10 14C9.448 14 9 14.448 9 15V17C9 17.552 9.448 18 10 18C10.552 18 11 17.552 11 17V15Z"/></svg>

<svg xmlns="http://www.w3.org/2000/svg" width="24" height="24" fill="none"><path fill="currentColor" d="M14.69 2.111c.409.098.8.26 1.158.479.406.249.745.588 1.193 1.037l1.332 1.332c.449.449.788.788 1.037 1.193.219.358.38.748.479 1.157.11.463.11.943.11 1.577v7.355c0 .805 0 1.469-.044 2.011-.046.562-.145 1.078-.392 1.564a4 4 0 0 1-1.748 1.748c-.485.248-1.002.346-1.564.392-.542.044-1.205.044-2.011.044H9.757c-.805 0-1.469 0-2.011-.044-.562-.046-1.08-.145-1.565-.392a4 4 0 0 1-1.748-1.748c-.248-.485-.346-1.002-.392-1.564-.044-.542-.044-1.205-.044-2.011V7.759c0-.805 0-1.469.044-2.011.046-.562.145-1.079.392-1.565a4 4 0 0 1 1.748-1.748c.485-.248 1.002-.346 1.565-.391C8.286 2 8.95 2 9.756 2h3.356c.635 0 1.114-.001 1.577.11zM13 4H9.8c-.856 0-1.438.001-1.89.037-.438.036-.661.101-.818.181a2 2 0 0 0-.874.874c-.08.157-.145.38-.181.819C6 6.361 6 6.943 6 7.8v8.4c0 .857 0 1.438.037 1.889.036.439.101.662.181.819.192.377.498.683.874.874.157.08.38.145.819.181C8.36 20 8.944 20 9.8 20h4.4c.856 0 1.439-.001 1.889-.037.439-.036.662-.101.819-.181.377-.192.683-.498.874-.874.079-.157.145-.38.18-.819.038-.45.039-1.033.039-1.889V9h-2a3 3 0 0 1-3-3zm4.56 3c-.12-.142-.312-.338-.673-.699l-1.188-1.188a13 13 0 0 0-.7-.673V6a1 1 0 0 0 1 1z"/><path fill="currentColor" d="M15 12a1 1 0 0 0-2 0v5a1 1 0 0 0 2 0zm-4 3a1 1 0 0 0-2 0v2a1 1 0 0 0 2 0z"/></svg>
